X: 714
T: Ah Surely
R: reel
M: 4/4
K: Gmajor
"D"AGAc "G"BGGA|BGBd g2fg|"D"eA (3AAA "G"BGBd|egdc BGdB|
"D"AGAc "G"BGGA|BGBd g2ga|bgag "C"eg"D"fa|gedc "G"BGG2:|
|:"G"bg (3ggg "C"agef|"G"gfge "D"dega|"G"bg (3ggg aged|"C"eaag "D"a2ga|
"G"bg (3ggg "C"agef|"G"gfge "D"dega|"G"bgag "C"egfa|"D"gedc "G"BGG2:|

